X:11
T:Monkey Puzzle
C:Chris Walshaw
A:England
Z:Simon Wascher
R:mazurka
M:3/4
L:1/8
K:D
cA FA cA | BG EG Bc | A3BAG | FE FG AB |
cA FA cA | BG EG Bc |1 A3BAG | FG AB cd :|2 A3BAG | FE FG AG |:
FA dF Ad | GB dG Bd | cB AG FE | F2D2AG |
FA dF Ad | GB dG Bd |1 cB AB (3cBA | dc BA GA :|2 cB AG FE | FG AB cd |]
